Costumes/r-block.svg

<?xml version="1.0" encoding="UTF-8" standalone="no"?>
<svg
   version="1.1"
   width="52.927914"
   height="79.73806"
   id="svg6"
   sodipodi:docname="r-block.svg"
   xmlns:inkscape="http://www.inkscape.org/namespaces/inkscape"
   xmlns:sodipodi="http://sodipodi.sourceforge.net/DTD/sodipodi-0.dtd"
   xmlns="http://www.w3.org/2000/svg"
   xmlns:svg="http://www.w3.org/2000/svg">
  <defs
     id="defs10" />
  <sodipodi:namedview
     id="namedview8"
     pagecolor="#ffffff"
     bordercolor="#000000"
     borderopacity="0.25"
     inkscape:showpageshadow="2"
     inkscape:pageopacity="0.0"
     inkscape:pagecheckerboard="0"
     inkscape:deskcolor="#d1d1d1" />
  <!-- Exported by Scratch - http://scratch.mit.edu/ -->
  <g
     id="ID0.19021361554041505"
     transform="translate(-0.05278618,-0.23775416)">
    <path
       id="ID0.8817562349140644"
       d="m 293,349 c 4.652,-0.288 9.333,0 14,0 23.633,0.214 31.283,28.189 15,41 5.344,8.989 7.869,20.797 15,28 0,1.333 0,2.667 0,4 -1.615,-0.281 -1.722,0.945 -3,1 0.111,2.555 1.833,3.5 3,5 0,1 0,2 0,3 -6.573,2.093 -10.972,6.361 -17,9 -6.299,-9.368 -8.229,-23.104 -15,-32 -4.903,5.752 1.208,16.764 0,25 -0.303,2.059 -3.121,0.27 -3.85,1.5 -1.173,1.813 0.797,5.288 -1.15,6.5 -3.721,2.309 -9.61,0.39 -13,2 -1.667,0 -3.333,0 -5,0 -3.722,-28.777 -3.604,-51.526 -7,-78 0,-1.667 -1.079,-3.734 0,-5 1.656,-1.928 5.377,-1.285 6.9,-3.4 1.209,-1.553 -1.596,-4.791 0.1,-6 3.016,-2.144 7.546,-1.056 11,-1.6 z m 24,6 c -9.359,-0.901 -21.497,-5.547 -32,0 4.196,30.318 1.008,51.84 6,76 4.294,-0.039 7.363,-1.304 10,-3 -1.496,-13.613 -9.548,-32.38 9,-33 2.623,12.043 10.665,18.669 14,30 3.489,-1.511 7.171,-2.829 9,-6 -6.622,-8.711 -10.729,-19.938 -16,-30 10.989,-6.866 13.697,-27.939 0,-34 z"
       transform="matrix(0.84712374,0,0,0.84712374,-232.5,-295.3)" />
    <path
       id="ID0.7739334432408214"
       fill="#ff9400"
       d="m 317,389 c 5.271,10.062 9.378,21.289 16,30 -1.829,3.171 -5.511,4.489 -9,6 -3.335,-11.331 -11.377,-17.957 -14,-30 -18.548,0.62 -10.496,19.387 -9,33 -2.637,1.696 -5.706,2.961 -10,3 -4.992,-24.16 -1.804,-45.682 -6,-76 10.503,-5.547 22.641,-0.901 32,0 13.697,6.061 10.989,27.134 0,34 z m -22,-28 c 1.71,11.964 0.776,18.391 3,28 11.231,-3.102 20.894,-7.773 22,-21 -4.192,-6.305 -14.996,-9.645 -25,-7 z"
       transform="matrix(0.84712374,0,0,0.84712374,-232.5,-295.3)" />
    <path
       id="ID0.5371424774639308"
       d="m 320,368 c -1.106,13.227 -10.769,17.898 -22,21 -2.224,-9.609 -1.29,-16.036 -3,-28 10.004,-2.645 20.808,0.695 25,7 z m -20,16 c 4.734,-2.6 12.46,-2.207 11,-11 -2.455,-2.212 -6.69,-2.643 -11,-3 0,4.667 0,9.333 0,14 z"
       transform="matrix(0.84712374,0,0,0.84712374,-232.5,-295.3)" />
  </g>
</svg>

<svg version="1.1" width="53" height="80" xmlns="http://www.w3.org/2000/svg" xmlns:xlink="http://www.w3.org/1999/xlink">
  <!-- Exported by Scratch - http://scratch.mit.edu/ -->
  <g id="ID0.19021361554041505">
    <path id="ID0.8817562349140644" d="M 293 349 C 297.652 348.712 302.333 349 307 349 C 330.633 349.214 338.283 377.189 322 390 C 327.344 398.989 329.869 410.797 337 418 C 337 419.333 337 420.667 337 422 C 335.385 421.719 335.278 422.945 334 423 C 334.111 425.555 335.833 426.500 337 428 C 337 429 337 430 337 431 C 330.427 433.093 326.028 437.361 320 440 C 313.701 430.632 311.771 416.896 305 408 C 300.097 413.752 306.208 424.764 305 433 C 304.697 435.059 301.879 433.270 301.150 434.500 C 299.977 436.313 301.947 439.788 300 441 C 296.279 443.309 290.390 441.390 287 443 C 285.333 443 283.667 443 282 443 C 278.278 414.223 278.396 391.474 275 365 C 275 363.333 273.921 361.266 275 360 C 276.656 358.072 280.377 358.715 281.900 356.600 C 283.109 355.047 280.304 351.809 282 350.600 C 285.016 348.456 289.546 349.544 293 349 Z M 317 355 C 307.641 354.099 295.503 349.453 285 355 C 289.196 385.318 286.008 406.840 291 431 C 295.294 430.961 298.363 429.696 301 428 C 299.504 414.387 291.452 395.620 310 395 C 312.623 407.043 320.665 413.669 324 425 C 327.489 423.489 331.171 422.171 333 419 C 326.378 410.289 322.271 399.062 317 389 C 327.989 382.134 330.697 361.061 317 355 Z " transform="matrix(0.8471237421035767, 0, 0, 0.8471237421035767, -232.5, -295.3)"/>
    <path id="ID0.7739334432408214" fill="#FF9400" d="M 317 389 C 322.271 399.062 326.378 410.289 333 419 C 331.171 422.171 327.489 423.489 324 425 C 320.665 413.669 312.623 407.043 310 395 C 291.452 395.620 299.504 414.387 301 428 C 298.363 429.696 295.294 430.961 291 431 C 286.008 406.840 289.196 385.318 285 355 C 295.503 349.453 307.641 354.099 317 355 C 330.697 361.061 327.989 382.134 317 389 Z M 295 361 C 296.710 372.964 295.776 379.391 298 389 C 309.231 385.898 318.894 381.227 320 368 C 315.808 361.695 305.004 358.355 295 361 Z " transform="matrix(0.8471237421035767, 0, 0, 0.8471237421035767, -232.5, -295.3)"/>
    <path id="ID0.5371424774639308" d="M 320 368 C 318.894 381.227 309.231 385.898 298 389 C 295.776 379.391 296.710 372.964 295 361 C 305.004 358.355 315.808 361.695 320 368 Z M 300 384 C 304.734 381.400 312.460 381.793 311 373 C 308.545 370.788 304.310 370.357 300 370 C 300 374.667 300 379.333 300 384 Z " transform="matrix(0.8471237421035767, 0, 0, 0.8471237421035767, -232.5, -295.3)"/>
  </g>
</svg>
